X: 1
T: Jimmy's Favorite
C: Jim Magill
D: London 16040
Z: John Chambers <jc:trillian.mit.edu>
M: 6/8
L: 1/8
K: G
%%slurgraces
d \
| "G"g>bg gdB | "Em"G2G GAB | "Am"c>dc cBA | "C"E6 | {e}"D7"f2f fed | f>af f2e |
|1 "D7"d>ed ded | "G"B3- Bz :|2 "D7"d>ed def | "G"g3- gz :: D | "G"G2G GDB, | G>DB, GDB,  |
| "G7"G2G GAB | "Am"c6 | {A}"D7"F2F FED | F>ED FED | F>GA cBA |1 "G"B3- Bz :|2 "G"G3-Gz |]
